actions/24/edit-table-insert-row-under.svg

<?xml version="1.0" encoding="UTF-8" standalone="no"?>
<svg
   width="24"
   height="24"
   viewBox="0 0 24 24"
   version="1.1"
   id="svg7"
   sodipodi:docname="edit-table-insert-row-under.svg"
   inkscape:version="1.1.2 (0a00cf5339, 2022-02-04)"
   xmlns:inkscape="http://www.inkscape.org/namespaces/inkscape"
   xmlns:sodipodi="http://sodipodi.sourceforge.net/DTD/sodipodi-0.dtd"
   xmlns="http://www.w3.org/2000/svg"
   xmlns:svg="http://www.w3.org/2000/svg">
  <sodipodi:namedview
     id="namedview9"
     pagecolor="#000000"
     bordercolor="#666666"
     borderopacity="1.0"
     inkscape:pageshadow="2"
     inkscape:pageopacity="0"
     inkscape:pagecheckerboard="0"
     showgrid="false"
     inkscape:zoom="28.416667"
     inkscape:cx="11.982405"
     inkscape:cy="11.964809"
     inkscape:window-width="1886"
     inkscape:window-height="967"
     inkscape:window-x="0"
     inkscape:window-y="29"
     inkscape:window-maximized="1"
     inkscape:current-layer="svg7" />
  <defs
     id="defs3">
    <style
       id="current-color-scheme"
       type="text/css">
   .ColorScheme-Text { color:#eeeeec; } .ColorScheme-Highlight { color:#367bf0; } .ColorScheme-NeutralText { color:#ffcc44; } .ColorScheme-PositiveText { color:#3db47e; } .ColorScheme-NegativeText { color:#dd4747; }
  </style>
  </defs>
  <path
     style="fill:currentColor"
     class="ColorScheme-Text"
     d="M 1,1 V 5 H 3 V 3 H 5 V 5 H 7 V 3 h 2 v 2 h 2 V 3 h 2 v 2 h 2 V 1 Z M 1,6 V 7 H 1.8842666 L 2,7.2812 v 0 l -1,1 v 0.9584358 0 L 1.4175474,9.3012526 2,8.7188 3.7188,7 H 5.7548177 L 6,7.2812 v 0 l -1,1 L 3.2812,10 H 1 v 5 h 14 v -4 h -2 v 2 H 11 V 11 H 9 v 2 H 7 v -2 h 1 v -1.2683399 0 L 7.6368556,9.6443444 7.2812,10 H 5.1917549 v 0 L 5,9.7188 6,8.7188 7.7188,7 H 8 V 6 Z m 9.356144,1.7122887 v 0 l 1.273981,2.5479603 0.747104,-0.01471 v 0 l 1.245683,-2.4913663 v 0 L 13.250842,7 H 10.785924 Z M 3,11 h 2 v 2 H 3 Z"
     transform="translate(4,4)"
     id="path5"
     sodipodi:nodetypes="ccccccccccccccccccccccccccccccccccccccccccccccccccccccccccccccccccccccccc" />
</svg>

<svg xmlns="http://www.w3.org/2000/svg" width="24" height="24" viewBox="0 0 24 24">
 <defs>
  <style id="current-color-scheme" type="text/css">
   .ColorScheme-Text { color:#eeeeec; } .ColorScheme-Highlight { color:#367bf0; } .ColorScheme-NeutralText { color:#ffcc44; } .ColorScheme-PositiveText { color:#3db47e; } .ColorScheme-NegativeText { color:#dd4747; }
  </style>
 </defs>
 <path style="fill:currentColor" class="ColorScheme-Text" d="m1 1v4h2v-2h2v2h2v-2h2v2h2v-2h2v2h2v-4h-14zm0 5v1h1.2812l-0.2812 0.2812-1 1v1.4376l1-1 1.7188-1.7188h2.5624l-0.2812 0.2812-1 1-1.7188 1.7188h-2.2812v5h14v-4h-2v2h-2v-2h-2v2h-2v-2h1v-1.7188l-0.7188 0.7188h-2.5624l0.2812-0.2812 1-1 1.7188-1.7188h0.2812v-1h-7zm9 1l2 4 2-4h-4zm-7 4h2v2h-2v-2z" transform="translate(4 4)"/>
</svg>
